images/icons/external-link.svg

<svg xmlns="http://www.w3.org/2000/svg" viewBox="0 0 30 30">
    <path fill="white" d="M 25.980469 2.9902344 A 1.0001 1.0001 0 0 0 25.869141 3 L 20 3 A 1.0001 1.0001 0 1 0 20 5 L 23.585938 5 L 13.292969 15.292969 A 1.0001 1.0001 0 1 0 14.707031 16.707031 L 25 6.4140625 L 25 10 A 1.0001 1.0001 0 1 0 27 10 L 27 4.1269531 A 1.0001 1.0001 0 0 0 25.980469 2.9902344 z M 6 7 C 4.9069372 7 4 7.9069372 4 9 L 4 24 C 4 25.093063 4.9069372 26 6 26 L 21 26 C 22.093063 26 23 25.093063 23 24 L 23 14 L 23 11.421875 L 21 13.421875 L 21 16 L 21 24 L 6 24 L 6 9 L 14 9 L 16 9 L 16.578125 9 L 18.578125 7 L 16 7 L 14 7 L 6 7 z"></path>
</svg>

<svg xmlns="http://www.w3.org/2000/svg" viewBox="0 0 30 30"><path fill="#fff" d="M25.98 2.99a1 1 0 0 0-.111.01h-5.869a1 1 0 1 0 0 2h3.586l-10.293 10.293a1 1 0 1 0 1.414 1.414l10.293-10.293v3.586a1 1 0 1 0 2 0v-5.873a1 1 0 0 0-1.02-1.137zm-19.98 4.01c-1.093 0-2 .907-2 2v15c0 1.093.907 2 2 2h15c1.093 0 2-.907 2-2v-12.578l-2 2v10.578h-15v-15h10.578l2-2h-12.578z"/></svg>
